m/partners/pnr16.svg

<svg width="41" height="41" viewBox="0 0 41 41" fill="none" xmlns="http://www.w3.org/2000/svg">
<path d="M19.2645 18.4637C18.7337 18.6879 18.3081 19.022 17.9924 19.4704C17.6767 19.9189 17.5165 20.4588 17.5165 21.0949C17.5165 21.9094 17.8597 22.5363 18.5415 22.9801C19.1867 23.3965 19.864 23.5018 20.5732 23.2913C21.3923 23.0533 21.946 22.4722 22.2388 21.5479C22.3761 21.1223 22.4448 20.6464 22.4448 20.1156V17.8185C21.8682 17.8368 21.3282 17.8917 20.8203 17.9878C20.3124 18.0839 19.7953 18.2441 19.2645 18.4637ZM20.5 0C9.17924 0 0 9.17924 0 20.5C0 31.8208 9.17924 41 20.5 41C31.8208 41 41 31.8208 41 20.5C41 9.17924 31.8208 0 20.5 0ZM22.1382 12.0209C21.8087 11.5221 21.2184 11.2704 20.3673 11.2704C20.3078 11.2704 20.23 11.275 20.1248 11.2842C20.0241 11.2933 19.8228 11.3528 19.5345 11.4535C19.2449 11.557 18.9697 11.697 18.7154 11.8699C18.4637 12.0437 18.1892 12.3275 17.8917 12.7118C17.5989 13.1008 17.3655 13.5538 17.1916 14.0754L12.8903 13.6911C12.8903 13.1237 13.0001 12.5608 13.2106 12.0026C13.4257 11.4443 13.7506 10.9089 14.1898 10.401C14.6291 9.8885 15.1554 9.44007 15.7685 9.05569C16.3817 8.66674 17.123 8.36016 17.9833 8.12679C18.8481 7.89342 19.7724 7.77902 20.77 7.77902C21.7446 7.77902 22.6278 7.89799 23.4148 8.13136C24.2019 8.36931 24.8379 8.65759 25.3093 9.00536C25.7634 9.33297 26.1633 9.72979 26.4944 10.1814C26.8102 10.6206 27.0298 11.0279 27.1533 11.4031C27.2769 11.7783 27.3364 12.1215 27.3364 12.4464V20.7974C27.3364 21.0903 27.4004 21.3923 27.5331 21.7035C27.6658 22.0146 27.8214 22.2892 27.9999 22.5271C28.1784 22.7651 28.3614 22.9801 28.549 23.1815C28.7366 23.3782 28.8968 23.5338 29.034 23.6345L29.2217 23.7901L25.9041 26.9657C25.5152 26.6134 25.1308 26.2611 24.751 25.895C24.3712 25.5289 24.0875 25.2544 23.9045 25.0667L23.6253 24.783C23.5155 24.6778 23.3965 24.5222 23.2593 24.3163C22.8886 24.8746 22.4127 25.3596 21.8362 25.7714C21.255 26.1833 20.6327 26.4853 19.9738 26.6729C19.3103 26.8605 18.6285 26.9703 17.9283 26.9978C17.2282 27.0252 16.5556 26.9291 15.9195 26.7003C15.2835 26.4715 14.7069 26.165 14.199 25.7714C13.6911 25.3779 13.2884 24.8471 12.9864 24.1699C12.6844 23.4926 12.5334 22.7285 12.5334 21.8636C12.5334 21.0674 12.6706 20.3398 12.9406 19.6809C13.2152 19.0174 13.5629 18.4683 13.9931 18.029C14.4232 17.5897 14.9403 17.1962 15.5489 16.853C16.1575 16.5098 16.7569 16.2398 17.3426 16.0431C17.9283 15.8509 18.5598 15.6862 19.2416 15.5535C19.9234 15.4208 20.5046 15.3338 20.9896 15.2926C21.4747 15.2515 21.9597 15.2194 22.4448 15.2011V13.3982C22.4448 12.7805 22.3395 12.3229 22.1382 12.0209ZM30.3977 29.391C30.2695 29.542 30.0545 29.7479 29.7525 30.0087C29.4504 30.2695 28.9837 30.5898 28.3568 30.9742C27.7299 31.3586 27.039 31.7064 26.2977 32.0221C25.5518 32.3378 24.6366 32.6124 23.5475 32.8458C22.4631 33.0791 21.342 33.1935 20.1934 33.1935C19.0311 33.1935 17.8734 33.0471 16.7112 32.7542C15.5489 32.4614 14.533 32.0999 13.6545 31.6698C12.7805 31.2396 11.9339 30.7454 11.1331 30.1963C10.3278 29.6426 9.68259 29.1484 9.19297 28.7092C8.70792 28.2699 8.29609 27.8535 7.96663 27.4691C7.88884 27.3821 7.8385 27.3044 7.8202 27.2357C7.8019 27.1671 7.80647 27.1076 7.83393 27.0664C7.86138 27.0252 7.90257 26.9932 7.9529 26.9657C8.00757 26.9415 8.06767 26.9321 8.12713 26.9385C8.18659 26.9449 8.2433 26.967 8.29152 27.0023C10.1631 28.1097 11.6273 28.8922 12.6798 29.3544C16.4732 31.02 20.3673 31.4455 24.3621 30.631C26.2153 30.2512 28.1189 29.6152 30.0773 28.7183C30.2238 28.6634 30.3519 28.6497 30.4571 28.6771C30.5624 28.7046 30.6173 28.7869 30.6173 28.9242C30.6173 29.0523 30.5441 29.2125 30.3977 29.391ZM33.1386 28.064C33.0563 28.5719 32.9144 29.0523 32.7222 29.5191C32.3927 30.3016 31.9763 30.8919 31.4821 31.2762C31.3174 31.4089 31.1893 31.4501 31.1023 31.4044C31.0154 31.3586 31.0154 31.2442 31.1023 31.0657C31.3083 30.6402 31.5233 30.0682 31.7521 29.3406C31.9809 28.6176 32.0129 28.1509 31.8482 27.945C31.7979 27.8763 31.7247 27.826 31.6194 27.7802C31.5188 27.7391 31.3861 27.7116 31.2259 27.6933C31.0657 27.675 30.9193 27.6658 30.7958 27.6567C30.6676 27.6475 30.4983 27.6475 30.2833 27.6567C30.0682 27.6658 29.9172 27.675 29.8211 27.6842C29.5605 27.7096 29.2997 27.7325 29.0386 27.7528C28.9791 27.7619 28.9151 27.7711 28.851 27.7757C28.7824 27.7802 28.7275 27.7848 28.6908 27.7894L28.5673 27.8031C28.5215 27.8077 28.4895 27.8123 28.4666 27.8123H28.3202L28.2744 27.8031L28.247 27.7802L28.2241 27.7391C28.1646 27.5881 28.3934 27.4004 28.9105 27.1717C29.4276 26.9429 29.9309 26.801 30.416 26.7461C30.8644 26.6775 31.3906 26.6775 31.9946 26.7324C32.5987 26.7873 32.9693 26.9017 33.1066 27.071C33.2118 27.2311 33.221 27.5606 33.1386 28.064Z" fill="#2B354E"/>
</svg>

<svg xmlns="http://www.w3.org/2000/svg" fill="none" viewBox="0 0 41 41"><path fill="#2B354E" d="M19.265 18.464c-.531.224-.957.558-1.273 1.006-.315.449-.476.989-.476 1.625 0 .814.344 1.441 1.026 1.885.645.416 1.322.522 2.031.311.82-.238 1.373-.819 1.666-1.743.137-.426.206-.902.206-1.432v-2.297a10.53 10.53 0 0 0-1.625.169 7.936 7.936 0 0 0-1.555.476ZM20.5 0C9.18 0 0 9.18 0 20.5S9.18 41 20.5 41 41 31.82 41 20.5 31.82 0 20.5 0Zm1.638 12.02c-.33-.498-.92-.75-1.77-.75-.06 0-.138.005-.243.014-.1.01-.302.069-.59.17a3.63 3.63 0 0 0-.82.416c-.251.174-.526.458-.823.842a4.735 4.735 0 0 0-.7 1.363l-4.302-.384c0-.567.11-1.13.32-1.688.216-.559.54-1.094.98-1.602.44-.512.965-.96 1.579-1.345.613-.39 1.354-.696 2.214-.93.865-.233 1.79-.347 2.787-.347.975 0 1.858.119 2.645.352.787.238 1.423.527 1.894.874.454.328.854.725 1.185 1.176.316.44.536.847.66 1.222.123.375.182.718.182 1.043v8.351c0 .293.064.595.197.906.133.312.288.586.467.824.178.238.361.453.549.654.188.197.348.353.485.453l.188.156-3.318 3.176a50.623 50.623 0 0 1-2-1.9l-.279-.283a2.855 2.855 0 0 1-.366-.467 5.579 5.579 0 0 1-1.423 1.455 6.097 6.097 0 0 1-1.862.902 8.756 8.756 0 0 1-2.046.325 5.28 5.28 0 0 1-2.009-.298 6.227 6.227 0 0 1-1.72-.929c-.508-.393-.91-.924-1.213-1.601-.302-.677-.453-1.442-.453-2.306 0-.797.138-1.524.408-2.183.274-.664.622-1.213 1.052-1.652.43-.44.947-.833 1.556-1.176a10.417 10.417 0 0 1 1.794-.81 15.71 15.71 0 0 1 1.899-.49c.681-.132 1.263-.22 1.748-.26.485-.041.97-.074 1.455-.092v-1.803c0-.617-.105-1.075-.307-1.377Zm8.26 17.371a6.328 6.328 0 0 1-.645.618c-.303.26-.77.58-1.396.965-.627.385-1.318.732-2.06 1.048-.745.316-1.66.59-2.75.824a15.924 15.924 0 0 1-3.354.348c-1.162 0-2.32-.147-3.482-.44-1.162-.293-2.178-.654-3.056-1.084-.874-.43-1.721-.925-2.522-1.474-.805-.553-1.45-1.048-1.94-1.487-.485-.44-.897-.855-1.226-1.24a.62.62 0 0 1-.147-.233c-.018-.069-.014-.128.014-.17a.325.325 0 0 1 .119-.1.34.34 0 0 1 .339.036c1.871 1.108 3.335 1.89 4.388 2.352 3.793 1.666 7.687 2.091 11.682 1.277 1.853-.38 3.757-1.016 5.715-1.913a.638.638 0 0 1 .38-.04c.105.027.16.109.16.246 0 .128-.073.288-.22.467Zm2.74-1.327a6.55 6.55 0 0 1-.416 1.455c-.33.783-.746 1.373-1.24 1.757-.165.133-.293.174-.38.128-.087-.045-.087-.16 0-.338.206-.426.421-.998.65-1.725.229-.723.26-1.19.096-1.396a.528.528 0 0 0-.229-.165 1.533 1.533 0 0 0-.393-.087c-.16-.018-.307-.027-.43-.036a4.685 4.685 0 0 0-.513 0c-.215.009-.366.018-.462.027-.26.026-.521.049-.782.069a2.37 2.37 0 0 1-.188.023c-.069.004-.123.009-.16.013l-.124.014c-.046.005-.078.01-.1.01h-.147l-.046-.01-.027-.023-.023-.04c-.06-.152.17-.34.686-.568a5.166 5.166 0 0 1 1.506-.426c.448-.069.975-.069 1.579-.014.604.055.974.17 1.112.339.105.16.114.49.032.993Z"/></svg>
